X:1
T: The Braes of Letterfourie
C:Alexander Walker
R:Strathspey
Q:128
K:A
M:4/4
L:1/16
|:A2|ce3 e3c dcBA F4|E3A EC3 B,4 B,3d|ce3 e3c dcBA F4|E3A G3B A4-A2A2|
ce3 e3c dcBA F4|E3A EC3 B,4 B,3d|ce3 e3c dcBA F4|BE3 G3E A4-A2B2|
AAA2 dcBA eA3 c3A|B3E c3E d3E B3E|AAA2 dcBA eA3 c3A|BE3 G3E A4 A3E|
AAA2 dcBA eA3 c3A|B3E c3E d3E B3E|A,A,A,2 E3C F3D E3C|B,B3 E3G AA,3 A,2:|
